X:1
T: Lament for the Death of his Brother
C:Nathaniel Gow
R:Jig
Q:180
K:Am
M:6/8
L:1/16
AB|c3BA2 e2B2d2|c2A2A2 A4AB|c2B2A2 e2^f2g2|B2G2G2 G4AB|c2B2A2 e2B2d2|c2e2a2 e4d2|c3BA2 E2A2^G2|A2A2A2 A4AB|
c3BA2 e2B2d2|c2A2A2 A4AB|c2B2A2 e2^f2g2|B2G2G2 G4AB|c2B2A2 e2B2d2|c2e2a2 e4d2|c3BA2 E2A2^G2|A2A2A2 A4e2|
a2^g2a2 e2=gfed|c2A2A2 A4AB|c2B2A2 e2^f2g2|B2G2G2 G4e2|a2^g2a2 e2=gfed|c2A2A2 A2e2d2|c3BA2 E2A2^G2|A2A2A2 A4e2|
a2^g2a2 e2=gfed|c2A2A2 A4AB|c2B2A2 e2^f2g2|B2G2G2 G4e2|a2e2g2 f2d2B2|e2c2A2 B2^G2E2|A2B2c2 B2edcB|c2A2A2 A4||
